X:1
T:72
L:1/8
Q:1/4=100
M:3/4
K:F
V:1 treble nm="Piano" snm="Pno."
V:1
 c4 c2 | A4 F2 | D3 D/D/ ED | C6 | z F2 F G2 | A4 f2 | e2 d3 A | G6 | B2 z B d2 | c4 A2 | %10
 G3 ^F GA | D6 | C2 D2 d2 | c2 Bc/B/ A2 | G4 C2 | F6 |] %16

